assets/svg/1F4E8.svg

<svg xmlns="http://www.w3.org/2000/svg" viewBox="0 0 64 64" enable-background="new 0 0 64 64"><g fill="#29abe2"><path d="m21.23 26c0 1.668-2.375 3-5.309 3h-10.61c-2.932 0-5.307-1.332-5.307-3l0 0c0-1.668 2.375-3 5.307-3h10.611c2.933 0 5.308 1.332 5.308 3l0 0"/><path d="m25.25 34c0 1.668-2.375 3-5.309 3h-10.61c-2.932 0-5.307-1.332-5.307-3l0 0c0-1.668 2.375-3 5.307-3h10.611c2.933 0 5.308 1.332 5.308 3l0 0"/><path d="m29.28 42c0 1.668-2.375 3-5.308 3h-10.612c-2.931 0-5.306-1.332-5.306-3l0 0c0-1.668 2.375-3 5.306-3h10.611c2.934 0 5.309 1.332 5.309 3l0 0"/></g><path fill="#e6e7e8" d="m56.928 48.743c-1.122 3.822-5.357 6.923-9.458 6.923l-31.11-.002c-4.103 0-6.518-3.099-5.395-6.923l6.708-22.817c1.125-3.822 5.362-6.924 9.463-6.924l31.11.003c4.102 0 6.514 3.101 5.39 6.923l-6.707 22.817"/><path fill="#c0c0c0" d="m29.751 37.466c6.05-4.525 3.378-2.57 9.461-6.924h.169c2.686 3.311 2.202 3.05 5.393 6.925l12.154 11.276c-1.122 3.822-5.357 6.923-9.458 6.923l-31.11-.002c-4.103 0-6.518-3.099-5.395-6.923l18.788-11.275"/><path fill="#e6e7e8" d="m30.333 38.609c5.28-3.864 2.949-2.193 8.258-5.915h.149c2.379 2.83 1.95 2.607 4.781 5.915l10.754 9.629c-.959 3.266-4.659 5.912-8.257 5.912h-27.318c-3.604-.002-5.743-2.648-4.784-5.914l16.417-9.627"/><path fill="#b4b4b5" d="m28.499 39.27c.124.045 6.73 5.114 6.73 5.114l9.846-5.113-1.234-1.289-4.372 2.663-3.591 1.717-.998-.199-3.339-3.064-1.746-1.414-1.296 1.585"/><path fill="#b2b2b2" d="m63.63 25.925c1.124-3.822-1.288-6.923-5.39-6.923l-31.11-.002c-4.101 0-8.338 3.103-9.462 6.925l17.17 17.737c.12.148.24.299.372.464h.173c.291-.208.559-.398.813-.582l27.432-17.619"/><path fill="#f2f2f2" d="m60.796 26.16c.988-3.362-1.133-6.089-4.74-6.089l-27.362-.0001c-3.606 0-7.332 2.725-8.321 6.088l15.1 15.599c.105.131.212.263.33.407h.149c.256-.183.491-.351.714-.513l24.13-15.491"/></svg>

<?xml version="1.0" encoding="UTF-8" standalone="no"?>
<!-- Generator: Adobe Illustrator 16.0.0, SVG Export Plug-In . SVG Version: 6.00 Build 0)  -->

<svg
   xmlns:dc="http://purl.org/dc/elements/1.1/"
   xmlns:cc="http://creativecommons.org/ns#"
   xmlns:rdf="http://www.w3.org/1999/02/22-rdf-syntax-ns#"
   xmlns:svg="http://www.w3.org/2000/svg"
   xmlns="http://www.w3.org/2000/svg"
   xmlns:sodipodi="http://sodipodi.sourceforge.net/DTD/sodipodi-0.dtd"
   xmlns:inkscape="http://www.inkscape.org/namespaces/inkscape"
   version="1.1"
   id="Layer_1"
   x="0px"
   y="0px"
   width="64px"
   height="64px"
   viewBox="0 0 64 64"
   enable-background="new 0 0 64 64"
   xml:space="preserve"
   inkscape:version="0.48.5 r10040"
   sodipodi:docname="1F4E8.svg"
   inkscape:export-filename="D:\TESTINGEMOJI\SVGTEST\1F4E8.png"
   inkscape:export-xdpi="90"
   inkscape:export-ydpi="90"><metadata
   id="metadata3949"><rdf:RDF><cc:Work
       rdf:about=""><dc:format>image/svg+xml</dc:format><dc:type
         rdf:resource="http://purl.org/dc/dcmitype/StillImage" /><dc:title></dc:title></cc:Work></rdf:RDF></metadata><defs
   id="defs3947" /><sodipodi:namedview
   pagecolor="#ffffff"
   bordercolor="#666666"
   borderopacity="1"
   objecttolerance="10"
   gridtolerance="10"
   guidetolerance="10"
   inkscape:pageopacity="0"
   inkscape:pageshadow="2"
   inkscape:window-width="640"
   inkscape:window-height="480"
   id="namedview3945"
   showgrid="false"
   inkscape:zoom="3.6875"
   inkscape:cx="32"
   inkscape:cy="32"
   inkscape:window-x="856"
   inkscape:window-y="344"
   inkscape:window-maximized="0"
   inkscape:current-layer="Layer_1" />
<g
   id="g3909">
	<path
   fill="#29ABE2"
   d="M21.226,26c0,1.668-2.375,3-5.309,3H5.307C2.375,29,0,27.668,0,26l0,0c0-1.668,2.375-3,5.307-3h10.611   C18.851,23,21.226,24.332,21.226,26L21.226,26z"
   id="path3911" />
	<path
   fill="#29ABE2"
   d="M25.252,34c0,1.668-2.375,3-5.309,3H9.333c-2.932,0-5.307-1.332-5.307-3l0,0c0-1.668,2.375-3,5.307-3   h10.611C22.877,31,25.252,32.332,25.252,34L25.252,34z"
   id="path3913" />
	<path
   fill="#29ABE2"
   d="M29.279,42c0,1.668-2.375,3-5.308,3H13.359c-2.931,0-5.306-1.332-5.306-3l0,0c0-1.668,2.375-3,5.306-3   h10.611C26.904,39,29.279,40.332,29.279,42L29.279,42z"
   id="path3915" />
	<g
   id="g3917">
		<g
   id="g3919">
			<g
   id="g3921">
				<path
   fill="#E6E7E8"
   d="M56.928,48.743c-1.122,3.822-5.357,6.923-9.458,6.923l-31.112-0.002c-4.103,0-6.518-3.099-5.395-6.923      l6.708-22.817C18.796,22.102,23.033,19,27.134,19l31.111,0.003c4.102,0,6.514,3.101,5.39,6.923L56.928,48.743z"
   id="path3923" />
			</g>
			<g
   id="g3925">
				<path
   fill="#C0C0C0"
   d="M29.751,37.466c6.052-4.525,3.378-2.57,9.461-6.924h0.169c2.686,3.311,2.202,3.05,5.393,6.925      l12.154,11.276c-1.122,3.822-5.357,6.923-9.458,6.923l-31.112-0.002c-4.103,0-6.518-3.099-5.395-6.923L29.751,37.466z"
   id="path3927" />
			</g>
			<g
   id="g3929">
				<path
   fill="#E6E7E8"
   d="M30.333,38.609c5.28-3.864,2.949-2.193,8.258-5.915h0.149c2.379,2.83,1.95,2.607,4.781,5.915      l10.754,9.629c-0.959,3.266-4.659,5.912-8.257,5.912H18.7c-3.604-0.002-5.743-2.648-4.784-5.914L30.333,38.609z"
   id="path3931" />
			</g>
			<g
   id="g3933">
				<path
   fill="#B4B4B5"
   d="M28.499,39.272c0.124,0.045,6.73,5.114,6.73,5.114l9.846-5.113l-1.234-1.289l-4.372,2.663l-3.591,1.717      l-0.998-0.199l-3.339-3.064l-1.746-1.414L28.499,39.272z"
   id="path3935" />
			</g>
			<g
   id="g3937">
				<path
   fill="#B2B2B2"
   d="M63.635,25.925c1.124-3.822-1.288-6.923-5.39-6.923L27.134,19c-4.101,0-8.338,3.103-9.462,6.925      l17.173,17.737c0.12,0.148,0.24,0.299,0.372,0.464h0.173c0.291-0.208,0.559-0.398,0.813-0.582L63.635,25.925z"
   id="path3939" />
			</g>
		</g>
		<g
   id="g3941">
			<path
   fill="#F2F2F2"
   d="M60.796,26.161c0.988-3.362-1.133-6.089-4.74-6.089l-27.362-0.001c-3.606,0-7.332,2.725-8.321,6.088     l15.104,15.599c0.105,0.131,0.212,0.263,0.33,0.407h0.149c0.256-0.183,0.491-0.351,0.714-0.513L60.796,26.161z"
   id="path3943" />
		</g>
	</g>
</g>
</svg>
